X: 26
T: Greatham Sword Dance
M:6/8
L:1/8
S:Redcar Sword
C:Trad
O:Yorkshire/County Durham
Q:180
R:Jig
N:The sequence
Z:Colin Messer 14-Sep-2001
R:ABCB
K:G
R:A
G2B B2G|A2e e2d|G2B B2G|A2e e2g|f3 d3|cBc B3|G2B B2G|A3 G3:||
R:B
||d2z dcB|A3 G3|E2A A2G|F2E D3|d2z dcB|A3 G3|E2A G2F|G6||
||d2z dcB|A3 G3|E2A A2G|F2E D3|d2z dcB|A3 G3|E2A G2F|G3 G2A||
R:C
||B2A GFE|D3 DEF|G3 GAB|A3 AGA|B2A GFE|D3 DEF|G2B A2F|G3 G2A||
||B2A GFE|D3 DEF|G3 GAB|A3 AGA|B2A GFE|D3 DEF|G2B A2F|G6||


